X:132
T:Mrs Marsden’s Favourite TS.132
M:2/4
L:1/16
Q:1/4=100
S:Thomas Sands’ MS,1810,Lincolnshire
R:.hornpipe
O:England;Lincolnshire
Z:vmp.Ruairidh Greig, 2011
K:G
“triplet in MS”(GBG)D G2B2|(AcA)D A2c2|(BdB)G (cec)A|(E2A2)(F2D2)|
(BdA)D G2B2|(AcA)D A2c2|(BdB)G (cecA)|G2F2G4:|
|:(aga)f (ege)d|(cec)B (AcA)G|(AdA)B (AdA)B|A2d2f2a2|
“dotted in ms” (g2bg) (ege)d|(cec)B (AcA)B|(BdB)A (ded)A|G2F2G4:|]

